actions/22x22-light/draw-calligraphic.svg

<svg viewBox="0 0 22 22" xmlns="http://www.w3.org/2000/svg"><path d="m17.199219 3.0039062c-.122217.0081331-.203125.0273438-.203125.0273438-.661451.4533382-8.9375002 8.865234-8.9375002 8.865234l2.3300782 2.22461s7.016672-8.3028569 8.035156-9.9921878c-.112043-1.0661669-.85796-1.1493992-1.224609-1.125zm-9.7011721 9.5390628-2.7539063 1.617187s-.8597927 3.380693-1.1679687 4.703125l1.6523437-2.261719c-.14986-.333074-.0590125-.84187.203125-1.128906.3528052-.38428.9804841-.383585 1.3652344-.03125.3861596.353275.4128823.950248.0605469 1.335938-.2673052.292673-.7618114.409426-1.1113281.279297l-2.0664063 1.943359 4.3574219-1.6875 1.7519531-2.625z" fill="#4d4d4d"/></svg>

<svg xmlns="http://www.w3.org/2000/svg" viewBox="0 0 22 22">
  <defs id="defs3051">
    <style type="text/css" id="current-color-scheme">
      .ColorScheme-Text {
        color:#4d4d4d
      }
      </style>
  </defs>
 <path 
     style="fill:currentColor;fill-opacity:1;stroke:none"      
	 class="ColorScheme-Text"
        d="M 17.199219 3.0039062 C 17.077002 3.0120393 16.996094 3.03125 16.996094 3.03125 C 16.334643 3.4845882 8.0585938 11.896484 8.0585938 11.896484 L 10.388672 14.121094 C 10.388672 14.121094 17.405344 5.8182371 18.423828 4.1289062 C 18.311785 3.0627393 17.565868 2.979507 17.199219 3.0039062 z M 7.4980469 12.542969 L 4.7441406 14.160156 C 4.7441406 14.160156 3.8843479 17.540849 3.5761719 18.863281 L 5.2285156 16.601562 C 5.0786556 16.268488 5.1695031 15.759692 5.4316406 15.472656 C 5.7844458 15.088376 6.4121247 15.089071 6.796875 15.441406 C 7.1830346 15.794681 7.2097573 16.391654 6.8574219 16.777344 C 6.5901167 17.070017 6.0956105 17.18677 5.7460938 17.056641 L 3.6796875 19 L 8.0371094 17.3125 L 9.7890625 14.6875 L 7.4980469 12.542969 z "
     />
</svg>
